packages/axiom-materials/src/icon_svgs/reply.svg

<svg height="16" viewBox="0 0 16 16" width="16" xmlns="http://www.w3.org/2000/svg"><path d="m7.5 5.5v-2.5l-5.5 4 5.5 4v-2.5h2.5c1.453 0 3.781 1.734 1.141 4.547l.531.547s2.328-1.313 2.328-3.844-2-4.25-4-4.25z" fill-rule="evenodd"/></svg>

<?xml version="1.0" encoding="UTF-8"?>
<svg width="16px" height="16px" viewBox="0 0 16 16" version="1.1" xmlns="http://www.w3.org/2000/svg" xmlns:xlink="http://www.w3.org/1999/xlink">
    <!-- Generator: sketchtool 43.2 (39069) - http://www.bohemiancoding.com/sketch -->
    <title>reply</title>
    <desc>Created with sketchtool.</desc>
    <defs></defs>
    <g id="Page-1" stroke="none" stroke-width="1" fill="none" fill-rule="evenodd">
        <g id="reply" fill="#000000">
            <path d="M7.5,5.5 L7.5,3 L2,7 L7.5,11 L7.5,8.5 L10,8.5 C11.453,8.5 13.781,10.234 11.141,13.047 L11.672,13.594 C11.672,13.594 14,12.281 14,9.75 C14,7.219 12,5.5 10,5.5 L7.5,5.5 Z" id="Reply"></path>
        </g>
    </g>
</svg>
